images-ng/colibre/errornext.svg

<?xml version="1.0" encoding="UTF-8" standalone="no"?>
<svg
   viewBox="0 0 24 24"
   version="1.1"
   id="svg24"
   sodipodi:docname="lc_nexterror.svg"
   xml:space="preserve"
   inkscape:version="1.2.1 (9c6d41e410, 2022-07-14)"
   xmlns:inkscape="http://www.inkscape.org/namespaces/inkscape"
   xmlns:sodipodi="http://sodipodi.sourceforge.net/DTD/sodipodi-0.dtd"
   xmlns="http://www.w3.org/2000/svg"
   xmlns:svg="http://www.w3.org/2000/svg"><defs
     id="defs28" /><sodipodi:namedview
     id="namedview26"
     pagecolor="#ffffff"
     bordercolor="#000000"
     borderopacity="0.25"
     inkscape:showpageshadow="2"
     inkscape:pageopacity="0.0"
     inkscape:pagecheckerboard="0"
     inkscape:deskcolor="#d1d1d1"
     showgrid="true"
     inkscape:zoom="23.291667"
     inkscape:cx="16.271914"
     inkscape:cy="7.5134168"
     inkscape:window-width="1920"
     inkscape:window-height="1031"
     inkscape:window-x="0"
     inkscape:window-y="0"
     inkscape:window-maximized="1"
     inkscape:current-layer="svg24"><inkscape:grid
       type="xygrid"
       id="grid274"
       spacingx="0.5"
       spacingy="0.5"
       empspacing="2" /></sodipodi:namedview><path
     id="path257"
     d="M 12 3 A 9 9 0 0 0 3 12 A 9 9 0 0 0 12 21 A 9 9 0 0 0 18.693359 18.001953 L 17.251953 18.001953 A 8 8 0 0 1 12 20 A 8 8 0 0 1 4 12 A 8 8 0 0 1 12 4 A 8 8 0 0 1 19.90625 10.775391 L 20.996094 11.867188 A 9 9 0 0 0 12 3 z M 19.533203 14.658203 A 8 8 0 0 1 19.392578 14.998047 L 19.873047 14.998047 L 19.533203 14.658203 z "
     style="fill:#d42314" /><path
     id="path259"
     d="M 12 4 A 8 8 0 0 0 4 12 A 8 8 0 0 0 12 20 A 8 8 0 0 0 17.261719 18.001953 L 11.5 18.001953 C 10.685241 18.001953 9.9980469 17.314759 9.9980469 16.5 C 9.9980469 15.685241 10.685241 14.998047 11.5 14.998047 L 13.816406 14.998047 L 12 13.181641 L 8.4257812 16.755859 A 0.83553311 0.83555909 0 1 1 7.2441406 15.574219 L 10.818359 12 L 7.2519531 8.4335938 A 0.83486508 0.83489353 0 0 1 7.8339844 7 A 0.83486508 0.83489353 0 0 1 8.4335938 7.2519531 L 12 10.818359 L 15.566406 7.2519531 A 0.8348194 0.83484536 0 0 1 16.138672 7 A 0.8348194 0.83484536 0 0 1 16.746094 8.4335938 L 13.181641 12 L 16.179688 14.998047 L 19.412109 14.998047 A 8 8 0 0 0 19.529297 14.654297 L 17.443359 12.566406 C 16.864978 11.988022 16.864978 11.017839 17.443359 10.439453 C 17.732336 10.150474 18.124315 10 18.505859 10 C 18.887437 10 19.276621 10.14576 19.570312 10.439453 L 19.904297 10.773438 A 8 8 0 0 0 12 4 z "
     style="fill:#ff9198" /><path
     id="path261"
     d="M 7.8339844 7 A 0.83486508 0.83489353 0 0 0 7.2519531 8.4335938 L 10.818359 12 L 7.2441406 15.574219 A 0.83553311 0.83555909 0 1 0 8.4257812 16.755859 L 12 13.181641 L 13.816406 14.998047 L 16.179688 14.998047 L 13.181641 12 L 16.746094 8.4335938 A 0.8348194 0.83484536 0 0 0 16.138672 7 A 0.8348194 0.83484536 0 0 0 15.566406 7.2519531 L 12 10.818359 L 8.4335938 7.2519531 A 0.83486508 0.83489353 0 0 0 7.8339844 7 z "
     style="fill:#fafafa" /><path
     d="m18.505859 11.001953c-.127809 0-.25558.048549-.353515.146485-.195868.195869-.195868.513115 0 .708984l4.140625 4.142578h-10.792969c-.277 0-.5.223-.5.5s.223.5.5.5h10.792969l-4.140625 4.142578c-.195868.195869-.195868.513116 0 .708984.097935.097936.225706.146485.353515.146485s.257539-.048554.355469-.146485l4.992188-4.998046c.047015-.047013.084075-.103236.109375-.166016.02334-.057904.037109-.12105.037109-.1875s-.013769-.129596-.037109-.1875c-.0253-.06278-.06236-.119003-.109375-.166016l-4.992188-4.998046c-.09793-.09793-.22766-.146485-.355469-.146485z"
     fill="#1e8bcd"
     id="path14" /></svg>

<svg version="1.1" viewBox="0 0 24 24" xmlns="http://www.w3.org/2000/svg"><path d="m12 3a9 9 0 0 0-9 9 9 9 0 0 0 9 9 9 9 0 0 0 6.6934-2.998h-1.4414a8 8 0 0 1-5.252 1.998 8 8 0 0 1-8-8 8 8 0 0 1 8-8 8 8 0 0 1 7.9062 6.7754l1.0898 1.0918a9 9 0 0 0-8.9961-8.8672zm7.5332 11.658a8 8 0 0 1-0.14062 0.33984h0.48047l-0.33984-0.33984z" fill="#d42314"/><path d="m12 4a8 8 0 0 0-8 8 8 8 0 0 0 8 8 8 8 0 0 0 5.2617-1.998h-5.7617c-0.81476 0-1.502-0.68719-1.502-1.502s0.68719-1.502 1.502-1.502h2.3164l-1.8164-1.8164-3.5742 3.5742a0.83553 0.83556 0 1 1-1.1816-1.1816l3.5742-3.5742-3.5664-3.5664a0.83487 0.83489 0 0 1 0.58203-1.4336 0.83487 0.83489 0 0 1 0.59961 0.25195l3.5664 3.5664 3.5664-3.5664a0.83482 0.83485 0 0 1 0.57227-0.25195 0.83482 0.83485 0 0 1 0.60742 1.4336l-3.5645 3.5664 2.998 2.998h3.2324a8 8 0 0 0 0.11719-0.34375l-2.0859-2.0879c-0.57838-0.57838-0.57838-1.5486 0-2.127 0.28898-0.28898 0.68096-0.43945 1.0625-0.43945 0.38158 0 0.77076 0.14576 1.0645 0.43945l0.33398 0.33398a8 8 0 0 0-7.9043-6.7734z" fill="#ff9198"/><path d="m7.834 7a0.83487 0.83489 0 0 0-0.58203 1.4336l3.5664 3.5664-3.5742 3.5742a0.83553 0.83556 0 1 0 1.1816 1.1816l3.5742-3.5742 1.8164 1.8164h2.3633l-2.998-2.998 3.5645-3.5664a0.83482 0.83485 0 0 0-0.60742-1.4336 0.83482 0.83485 0 0 0-0.57227 0.25195l-3.5664 3.5664-3.5664-3.5664a0.83487 0.83489 0 0 0-0.59961-0.25195z" fill="#fafafa"/><path d="m18.505859 11.001953c-.127809 0-.25558.048549-.353515.146485-.195868.195869-.195868.513115 0 .708984l4.140625 4.142578h-10.792969c-.277 0-.5.223-.5.5s.223.5.5.5h10.792969l-4.140625 4.142578c-.195868.195869-.195868.513116 0 .708984.097935.097936.225706.146485.353515.146485s.257539-.048554.355469-.146485l4.992188-4.998046c.047015-.047013.084075-.103236.109375-.166016.02334-.057904.037109-.12105.037109-.1875s-.013769-.129596-.037109-.1875c-.0253-.06278-.06236-.119003-.109375-.166016l-4.992188-4.998046c-.09793-.09793-.22766-.146485-.355469-.146485z" fill="#1e8bcd"/></svg>
